!!!!SEGMENT: pl-wnifc--6639-n--001_gall-jan-karol--piosneczka-z-ogrodka-op-10-i.krn
!!!cenid: 18xx:4008
!!!COM: Gall, Jan Karol
!!!COM-rismID: pe50042628
!!!CDT: 1856-1912
!!!CNT: Polish
!!!GTL: Piosneczka z ogródka op. 10
!!!OTL: I.
!!!OMV: 001
!!!PDT: 1888
!!!AGN:
!!!SMS-siglum: PL-Wnifc
!!!SMS-shelfmark: 6639/n
!!!SMS-shelfwork: G
!!!SMS-variant:
!!!SMS-altvar:
!!!NIFC-rismSourceID: 1001149310
!!!NIFC-rismChildID: 1001149313
!!!NIFC-islandoraID: nifc:212943
!!!URL-pdf-islandora: https://repozytorium.nifc.pl/islandora/object/nifc%3A212943/datastream/PDF/view
!!!URL-scan:
!!!ONB-nifc: UWAGA: str. 3-5
!!!AIN: 2 piano 1 vox
!!!key: D-
**kern	**kern	**dynam	**kern	**text	**dynam
*part3	*part2	*part2	*part1	*part1	*part1
*staff3	*staff2	*	*staff1	*staff1	*
*I"Fortepian.	*I"Fortepian.	*	*I"Głos.	*	*
*I'pf	*I'pf	*	*I'V	*	*
*ICklav	*ICklav	*	*ICvox	*	*
*Ipiano	*Ipiano	*	*Ivox	*	*
*clefF4	*clefG2	*	*clefG2	*	*
*k[b-e-a-d-g-]	*k[b-e-a-d-g-]	*	*k[b-e-a-d-g-]	*	*
*D-:	*D-:	*	*D-:	*	*
*M2/4	*M2/4	*	*M2/4	*	*
=1	=1	=1	=1	=1	=1
*	*^	*	*	*	*
!LO:TX:b:i:t=con Ped.	!	!	!	!LO:TX:a:B:t=Allegretto.	!	!
8r	16f/LL	8r	p	2r	.	.
.	16a-/JJ	.	.	.	.	.
8Dn/L	4a-/	8c-X\L 8f	.	.	.	.
8E-/	.	8cn\J 8g-	.	.	.	.
8AA-/J	32a-/LLL	8rc	.	.	.	.
.	32b-/	.	.	.	.	.
.	32a-/	.	.	.	.	.
.	32g-/JJJ	.	.	.	.	.
=2	=2	=2	=2	=2	=2	=2
8DD-/L	16f/LL	8r	.	2r	.	.
.	16a-/JJ	.	.	.	.	.
8DDn/	4a-/	8c-X\L 8f	.	.	.	.
8EE-/	.	8cn\J 8g-	.	.	.	.
8AAA-/J	32a-/LLL	8rc	.	.	.	.
.	32b-/	.	.	.	.	.
.	32a-/	.	.	.	.	.
.	32g-/JJJ	.	.	.	.	.
*	*v	*v	*	*	*	*
=3	=3	=3	=3	=3	=3
*^	*	*	*	*	*
8r	2DD-\	16f/LL	>	2r	.	.
.	.	(16a-/	.	.	.	.
4.AA-/	.	16b-/	.	.	.	.
.	.	16dd-/JJ	.	.	.	.
.	.	16cc\LL	.	.	.	.
.	.	16dd-\JJ	.	.	.	.
!	!	!LO:TUP:a	!	!	!	!
.	.	24ff\LL	.	.	.	.
.	.	24ee-\	.	.	.	.
.	.	24dd-\JJ	.	.	.	.
*v	*v	*	*	*	*	*
=4	=4	=4	=4	=4	=4
(16DD-/LL	4.aa-;\)	]]	2r;	.	.
16AA-/	.	.	.	.	.
16F/	.	.	.	.	.
16A-/JJ	.	.	.	.	.
8d-;\) 8f	.	.	.	.	.
8r	8r	.	.	.	.
!!LO:LB:g=original	!	!	!	!	!
=5	=5	=5	=5	=5	=5
N(<16DD-/LL	8.r	.	8r	.	.
16AA-/	.	.	.	.	.
16F/JJ	.	.	8f/	U-	.
16r	16d-/N) 16f	.	.	.	.
8r	8a-/L	.	8a-/	-ro-	.
8GG-\ 8G-	8c/J 8en	.	8en/	-cza,	.
=6	=6	=6	=6	=6	=6
*	*^	*	*	*	*
4D-\ 4F	16f/LL	4.d-\	.	16f/LL	ci-	.
.	16e-/JJ 16g-	.	.	16g-/JJ	.	.
.	4f/ 4a-	.	.	4a-/	-chut-	.
8DD-/L	.	.	.	.	.	.
8D-/J	((8c-X/ 8f 8an	8ryy	.	8an/	-ka	.
=7	=7	=7	=7	=7	=7	=7
(16GG-\LL	16B-/)) 16g- 16b-	8ryy	.	8r	.	.
16D-\	16r	.	.	.	.	.
!	!LO:TUP:a:problem:klamra łukowa	!	!	!LO:TUP:a:problem:klamra łukowa	!	!
16B-\JJ)	24b-/LL	4g-\	.	24b-\LL	Pios-	.
.	24ccn/	.	.	24cc\	.	.
16r	.	.	.	.	.	.
.	24b-/JJ	.	.	24b-\JJ	.	.
4r	8ee-/L	.	.	8ee-\	-necz-	.
.	16dd-/L	8g-\	.	16dd-\	-ka	.
.	16b-/JJ	.	.	16b-\	z o-	.
*	*v	*v	*	*	*	*
=8	=8	=8	=8	=8	=8
N(16DD-/LL	8f/ 8a-	.	4.a-/	-gród-	.
16AA-/	.	.	.	.	.
16F/JJ	16r	.	.	.	.
16r	16A-/	.	.	.	.
8r	16d-/N) 16f	.	.	.	.
.	16r	.	.	.	.
(<8Dn\ 8A-	(>8c-X/ 8f	.	8f/	-ka	.
!!LO:LB:g=original	!	!	!	!	!
=9	=9	=9	=9	=9	=9
*^	*^	*	*	*	*
8A-/L)	8E-\	8g-/L)	8cn\L	.	8r	.	.
!	!	!LO:TUP:a:problem:klamra łukowa	!	!	!	!	!
8F/J	4.AA-\	24dn/L	8c-X\J	.	8dn/	O	.
.	.	24e-/	.	.	.	.	.
.	.	24d/JJ	.	.	.	.	.
4G-/	.	8b-/L	4cn\	.	8b-\	ran-	.
.	.	8en/J	.	.	8en/	-nej	.
*v	*v	*	*	*	*	*	*
*	*v	*v	*	*	*	*
=10	=10	=10	=10	=10	=10
(16DD-/LL	16d-/LL 16f	.	16f/LL	go-	.
16AA-/	16b-/JJ	.	16b-/JJ	.	.
16F/	4a-/	.	4a-/	-dzi-	.
16A-/JJ	.	.	.	.	.
16d-\) 16f	.	.	.	.	.
16r	.	.	.	.	.
!	!	!	!	!	!LO:HP:a
8BB-/	8d-/ 8f 8gn	< [	8gn/	-nie	<
=11	=11	=11	=11	=11	=11
!	!LO:TX:b:i:t=poco rallent._:dur=6sq2e:ext=ud:problem:text with line extensions	!	!	!	!
!	!	!	!LO:TX:a:i:t=poco rallent._:dur=4s2qe:ext=ud:problem:text with line extensions	!	!
(16FF\LL	16c/LL 16f 16a-	.	16a-\LL	Roz-	[
16C\	16dd-/JJ	.	16dd-\JJ	.	.
16A-\	4cc\	.	4cc\	-kosz-	.
16c\JJ	.	.	.	.	.
16f\) 16a-	.	.	.	.	.
16r	.	.	.	.	.
16D-\LL	16f-X/LL 16a- 16b-	.	16b-\	-nie	.
!	!	!	!	!	!LO:HP:a
16E-\JJ	16d-/JJ 16gn 16ee-	>	16ee-\	w dal	>
=12	=12	=12	=12	=12	=12
16AA-\LL	8c/ 8a- 8ee-	.	4ee-\	pły-	.
16E-\	.	.	.	.	.
16c\JJ	16r	]	.	.	.
16r	16e-/	.	.	.	.
4r;	16a-/	.	8a-/	-nie.	]
.	16r	.	.	.	.
.	8g#X;/	.	8r;	.	.
!!LO:PB:g=original	!	!	!	!	!
=13||	=13||	=13||	=13||	=13||	=13||
*k[bnenandngnf#c#g#d#]	*k[bnenandngnf#c#g#d#]	*	*k[bnenandngnf#c#g#d#]	*	*
!	!LO:TX:a:B:i:t=a tempo	!	!LO:TX:a:i:B:t=a tempo	!	!
16FF#/LL	8An/L 8d# 8b	pp	8.r	.	.
16AA#X/J	.	.	.	.	.
8BB/J	16r	.	.	.	.
.	16A/Jk 16d# 16f#	.	16f#/	I z	.
8BBB/L	16c#/LL 16d# 16a	.	16a/LL	szme-	.
.	16B/ 16d# 16g#	.	16g#/JJ	.	.
8BB/J	16A/ 16d# 16f#	.	16f#/LL	-ru	.
.	16B/JJ 16d# 16g#	.	16g#/JJ	.	.
=14	=14	=14	=14	=14	=14
4EE/	16G#/LL 16e	.	16e/LL	rze-	.
.	16B/JJ 16f#	.	16f#/JJ	.	.
.	4e/ 4g#	.	4g#/	-czuł-	.
8qAA#X/	.	.	.	.	.
8BB/L	.	.	.	.	.
8BBB/J	8B/ 8d# 8f##X	.	8f##X/	-ki	.
=15	=15	=15	=15	=15	=15
*	*^	*	*	*	*
8EE/L	16g#/LL	8B\L 8e	.	16g#/LL	Co	.
.	16a/J	.	.	16a/JJ	.	.
8DD#/J	8g#/J	8B#X\J 8f#	.	8g#/	do-	.
8GGG#\L	8a\L 8ff#	4ryy	.	8ff#\	-li-	.
8G#\J 8B#X	16g#\L 16ee	.	.	16ee\LL	-ną	.
.	16f#\JJ 16dd#	.	.	16dd#\JJ	.	.
*	*v	*v	*	*	*	*
=16	=16	=16	=16	=16	=16
.	8qe/	.	.	.	.
(16CC#/LL	4.ee\	.	4.ee\	go-	.
16GG#/	.	.	.	.	.
16E/	.	.	.	.	.
16G#/JJ	.	.	.	.	.
16c#\) 16e	.	.	.	.	.
16r	.	.	.	.	.
8r	8cc#\	.	8cc#\	-ni	.
=17	=17	=17	=17	=17	=17
16BBB/LL	8dn/L 8g# 8ee	.	8.ee\	Z brzę-	.
16D#X/J	.	.	.	.	.
8E/J	16r	.	.	.	.
.	16d/Jk 16g# 16b	.	16b\	-ku	.
8EE/L	16f#/LL 16g# 16ddn	.	16ddn\LL	drob-	.
.	16e/ 16g# 16cc#	.	16cc#\JJ	.	.
8E/J	16d/ 16g# 16b	.	16b\LL	-nej	.
.	16e/JJ 16g# 16cc#	.	16cc#\JJ	.	.
!!LO:LB:g=original	!	!	!	!	!
=18	=18	=18	=18	=18	=18
4AA/	16c#/LL 16a	.	16a/LL	psz-	.
.	16e/JJ 16b	.	16b/JJ	.	.
.	4a\ 4cc#	.	4cc#\	-czół-	.
8qD#X/	.	.	.	.	.
8E/L	.	.	.	.	.
8EE/J	8dn/ 8g# 8b#X	.	8b#X\	-ki,	.
=19	=19	=19	=19	=19	=19
*	*^	*	*	*	*
*	*	*^	*	*	*	*
8AA/L	8a/L 8cc#	[2c#\	8ryy	.	8cc#\	Z sen-	.
!	!LO:TX:i:b:t=poco rit.	!	!	!	!LO:TX:a:i:t=poco rit.	!	!
8FF#/	8a/	.	[<4.d#X/	.	8a/	-nej	.
8GG#/	8g#/	.	.	.	8g#/	fjoł-	.
8AA/J	8f#/J	.	.	.	8f#/	-ków	.
=20	=20	=20	=20	=20	=20	=20	=20
8GG#/L	4.g#/	4c#\]	2d#/]	.	4.g#/	wo-	.
8D#/J	.	.	.	.	.	.	.
4G#\	.	4B#X\	.	.	.	.	.
.	8f#/	.	.	.	8f#/	-ni,	.
*	*v	*v	*v	*	*	*	*
=21||	=21||	=21||	=21||	=21||	=21||
*k[fncngndnb-e-a-d-g-]	*k[fncngndnb-e-a-d-g-]	*	*k[fncngndnb-e-a-d-g-]	*	*
!!LO:TX:t=P:problem: kasowniki tylko w jednym systemie	!	!	!	!	!
!LO:TX:t=P:problem: kasowniki: Fn Cn Gn Dn	!LO:TX:b:B:t=a tempo	!	!LO:TX:a:i:B:t=a tempo	!	!
N(>16DD-/LL	8.r	.	8r	.	.
16AA-/	.	.	.	.	.
16D-/JJ	.	.	8f/	Z błę-	.
16r	16d-/N)< 16f	.	.	.	.
8r	8a-/L	.	8a-/	-ki-	.
8AA-/	8G-/J 8c 8en	.	8en/	-tów,	.
!!LO:LB:g=original	!	!	!	!	!
=22	=22	=22	=22	=22	=22
4DD-/	8F/ 8d- 8f	.	8f/	z o-	.
.	4d-/ 4f 4b-	.	4b-\	-bło-	.
4AA-/	.	.	.	.	.
.	8c/ 8en 8a-	.	8a-/	-ku	.
=23	=23	=23	=23	=23	=23
N(>16DD-/LL	8.r	.	8r	.	.
16AA-/	.	.	.	.	.
16F/JJ	.	.	8f/	Nim	.
16r	16d-/N)< 16f	.	.	.	.
4r	8a-/L	.	8a-/	ra-	.
.	16g-/L	.	16g-/	-nek	.
.	16f/JJ	.	16f/	za-	.
=24	=24	=24	=24	=24	=24
N(>16GG-/LL	8.b-/L	.	4b-\	-świ-	.
16D-/	.	.	.	.	.
16G-/JJ	.	.	.	.	.
16r	[16B-/JkN)<	.	.	.	.
4r	8B-/] 8d- 8e-	.	8e-/	-ta	.
.	8r	.	8r	.	.
=25	=25	=25	=25	=25	=25
*	*^	*	*	*	*
16GGn/LL	8.r	4ryy	.	8r	.	.
16E-/	.	.	.	.	.	.
16Gn/JJ	.	.	.	8e-/	W pół ś-	.
16r	[<16d-/ 16e-	.	<	.	.	.
4r	8dd-/L	4d-\]	.	8dd-\	-wie-	.
.	16cc/L	.	.	16cc\	-tle,	.
.	16b-/JJ	.	[[	16b-\	w pół	.
=26	=26	=26	=26	=26	=26	=26
*^	*	*	*	*	*	*
4F/	[2AA-\	8d-/L 8a-	4ryy	.	8ff\L	mro-	.
.	.	8f/J 8dd-	.	.	8dd-\	.	.
4Gn/	.	8cc/L	4en\	.	8cc\J	.	.
.	.	8b-/J	.	.	8b-\	-ku	.
!!LO:LB:g=original	!	!	!	!	!	!	!
=27	=27	=27	=27	=27	=27	=27	=27
8G-X/	8AA-\]	8c/L 8a-	4ryy	>	8r	.	.
!	!	!	!	!	!LO:TX:a:i:B:t=poco ritard. a tempo	!	!
8r	8ryy	8G-/J 8c 8e-	.	]	8e-/	Dla	.
!	!	!LO:TX:i:B:b:t=poco ritard. a tempo	!	!	!	!	!
8r	4ryy	8B-/L 8g-	8c\	.	8g-/	sie-	.
8AAA-/	.	16f/L	8r	.	16f/LL	-bie	.
.	.	16e-/JJ	.	.	16e-/JJ	.	.
*v	*v	*	*	*	*	*	*
=28	=28	=28	=28	=28	=28	=28
8DD-/L	16f/LL	8r	.	16f/LL	wdzięk	.
.	16a-/JJ	.	.	16a-/JJ	.	.
8DDn/	4a-/	8c-X\L 8f	.	[4.a-/	chwy-	.
8EE-/	.	8cn\J 8g-	.	.	.	.
8AAA-/J	32a-/LLL	8rc	.	.	.	.
.	32b-/	.	.	.	.	.
.	32a-/	.	.	.	.	.
.	32g-/JJJ	.	.	.	.	.
=29	=29	=29	=29	=29	=29	=29
8DD-/L	16f/LL	8r	<	4.a-/]	.	.
.	16a-/JJ	.	.	.	.	.
8DDn/	4a-/	8c-X\L 8f	.	.	.	.
8EE-/	.	8cn\J 8g-	[	.	.	.
8AAA-/J	32a-/LLL	8rc	.	8a-/	-ta.	.
.	32b-/	.	.	.	.	.
.	32a-/	.	.	.	.	.
.	32g-/JJJ	.	.	.	.	.
*	*v	*v	*	*	*	*
=30	=30	=30	=30	=30	=30
*^	*	*	*	*	*
8r	2BB-\	16f/LL	>	2r	.	.
.	.	(16a-/	.	.	.	.
4.AA-/	.	16b-/	.	.	.	.
.	.	16dd-/JJ	.	.	.	.
.	.	16cc\LL	.	.	.	.
.	.	16dd-\JJ	.	.	.	.
!	!	!LO:TUP:a:problem:klamra łukowa	!	!	!	!
.	.	24ff\LL	.	.	.	.
.	.	24ee-\	.	.	.	.
.	.	24dd-\JJ	.	.	.	.
*v	*v	*	*	*	*	*
=31	=31	=31	=31	=31	=31
16DD-/LL	4.aa-;\)	.	2r;	.	.
16AA-/	.	.	.	.	.
16F/	.	.	.	.	.
16A-/JJ	.	.	.	.	.
8d-;\ 8f	.	.	.	.	.
8r	8r	]	.	.	.
==	==	==	==	==	==
*-	*-	*-	*-	*-	*-
!!!system-decoration: s1{(s2,s3)}
!!!RDF**kern: N = linked
!!!RDF**kern: > = above
!!!RDF**kern: < = below
!!!ENC: Andrzej Gręziak
!!!END: 2022-08-05
!!!ENC: Natalia Wrzos
!!!END: 2022-08-29
!!!YEC: Copyright 2022 Narodowy Instytut Fryderyka Chopina (https://polishscores.org)
!!!YEM: License CC-BY-4.0 (https://creativecommons.org/licenses/by/4.0)
